X:1
T:[ID 2-45b]
T:[ID 2-45b]
T:Bezeichnung standardisiert: Polnischer Tanz Tantz In dieser Quelle auch als: Polon\"aise Tantz
T:Urheber unbekannt Datum in der hier transkribierten schriftlichen Quelle: 1767
C:Urheber unbekannt
C:Datum in der hier transkribierten schriftlichen Quelle: 1767
L:1/8
M:2/4
K:D
V:1 bass 
V:1
 F,D, C,A,, | D,A,,F,,D,, | F,D,C,A,, | D,A,,F,,D,, :: F,2 E,D, | E,A,,D,D,, | F,2 E,D, | %7
 E,C,D,C, | D,G,A,A,, | D,A,,F,,D,, :| %10

